X: 42
T: Stoptime Rag
C: Scott Joplin
%%abc-version 2.0
%%abcx-abcm2ps-target-version 5.9.1 (29 Sep 2008)
%%abc-creator hum2abc beta
%%abcx-conversion-date 2021/07/20 09:00:57
%%abc-copyright 2021 Craig Stuart Sapp
%%abc-edited-by Craig Stuart Sapp
%%abc-edited-by Craig Stuart Sapp
%%abcx-initial-encoding-date 2005/04/08
%%humdrum-veritas 3437973596
%%humdrum-veritas-data 3774381595
%%removed 0's from note length
%%linebreak <none>
%%barnumbers 0
L: 1/8
M: 2/4
N: Derived from stoptime.krn
Q: "Fast or slow." 1/4=100
%%staves {1 2}
V: 1 clef=treble
V: 2 clef=treble
K: C
[V:1] c'/g'/e'/c'/ g/e'/c'/g/ | 
[V:2] [K:clef=treble][c2G2E2][e2c2G2] | 
[V:1] a/c'/b/a/ g(3E/F/^F/ | 
[V:2] [^d2c2A2^F2][ecG][K:clef=bass](3E,/=F,/^F,/ | 
[V:1] G zz2 | 
[V:2] G, zz2[K:clef=treble] | 
[V:1] {/ac'} d'/e'/d' d' z | 
[V:2] [cA^F][cAF] [BG=F] z | 
[V:1] c'/g'/e'/c'/ g/e'/c'/g/ | 
[V:2] [c2G2E2][e2c2G2] | 
[V:1] a/c'/b/a/ g(3E/F/^F/ | 
[V:2] [^d2c2A2^F2][ecG][K:clef=bass](3E,/=F,/^F,/ | 
[V:1] G zz2 |[1 
[V:2] G, zz2 | 
[V:1] z [BGF][cGE] z :|][2 
[V:2] z [G,G,,][CC,] z :|]  
[V:1] z [BGF][cGE](3E/^F/^G/ ]|: 
[V:2] z [G,G,,][CC,]E, ]|:  
[V:1] A[ec]- [ec]e | 
[V:2] A,,[ECA,] A,,[ECA,] | 
[V:1] f/e/d/e/ f[fBA] | 
[V:2] [FDA,][FDA,] [FDA,][D,D,,] | 
[V:1] [eB^G] zz2 | 
[V:2] [E,E,,] zz2 | 
[V:1] z4 | 
[V:2] E,,/^G,,/B,,/E,/- E,/D,/C,/B,,/ | 
[V:1] z [ec]- [ec]e | 
[V:2] A,,[ECA,] A,,[ECA,] | 
[V:1] f/e/d/e/ f[fBA] | 
[V:2] [FDA,][FDA,] [FDA,][D,D,,] | 
[V:1] [eB^G] zz2 |[1 
[V:2] [E,E,,] zz2 | 
[V:1] z [^ged][aec](3E/^F/^G/ :|][2 
[V:2] z [E,E,,][A,A,,]E, :|]  
[V:1] z [^ged][aec] z | 
[V:2] z [E,E,,][A,A,,] z[K:clef=treble] | 
[V:1] c'/g'/e'/c'/ g/e'/c'/g/ | 
[V:2] [c2G2E2][e2c2G2] | 
[V:1] a/c'/b/a/ g(3E/F/^F/ | 
[V:2] [^d2c2A2^F2][ecG][K:clef=bass](3E,/=F,/^F,/ | 
[V:1] G zz2 | 
[V:2] G, zz2[K:clef=treble] | 
[V:1] {/ac'} d'/e'/d' d' z | 
[V:2] [cA^F][cAF] [BG=F] z | 
[V:1] c'/g'/e'/c'/ g/e'/c'/g/ | 
[V:2] [c2G2E2][e2c2G2] | 
[V:1] a/c'/b/a/ g(3E/F/^F/ | 
[V:2] [^d2c2A2^F2][ecG][K:clef=bass](3E,/=F,/^F,/ | 
[V:1] G zz2 | 
[V:2] G, zz2 | 
[V:1] z [BGF][cGE]e ]|:  
[V:2] z [G,G,,][CC,][^C^C,] ]|:  
[V:1] f/e/f/g/- g/a/g/f/ | 
[V:2] [DD,][FB,G,] [G,G,,][FB,G,] | 
[V:1] e/^d/e/a/- a/g/a/^a/ | 
[V:2] [CC,][ECG,] [EE,][^C^C,] | 
[V:1] [bf][b/f/]^a/ b/c'/d'/^d'/ | 
[V:2] [DD,][FB,G,] [G,G,,][FB,G,] | 
[V:1] e'/c'/b/a/ g/a/g/e/ | 
[V:2] [CC,][^DC^F,] [ECG,][^C^C,] | 
[V:1] f/e/f/g/- g/a/g/f/ | 
[V:2] [DD,][FB,G,] [G,G,,][FB,G,] | 
[V:1] e/^d/e/a/- a/c'/b/a/ | 
[V:2] z2_E,[CG,] & [CC,][ECG,]_E,2 | 
[V:1] bb/d'/ ^c'/d'/e'/^f'/ | 
[V:2] D,[DB,G,] D,[DC^F,] & D,2D,2 | 
[V:1] g'/^a/b/d'/ g/=a/g/e/ | 
[V:2] G,,[DB,G,] [DB,G,][^C^C,] | 
[V:1] f/e/f/g/- g/a/g/f/ | 
[V:2] [DD,][FB,G,] [G,G,,][FB,G,] | 
[V:1] e/^d/e/a/- a/g/a/^a/ | 
[V:2] [CC,][ECG,] [EE,][^C^C,] | 
[V:1] [bf][b/f/]^a/ b/c'/d'/^d'/ | 
[V:2] [DD,][FB,G,] [D,D,,][F,F,,] | 
[V:1] e'[^GE]- [GE][edG] | 
[V:2] [E,/E,,/]^G,,/B,,/E,/- E,/D,/C,/B,,/ | 
[V:1] [e/^c/=G/]f/e/A/ ^G/A/_B/A/ | 
[V:2] A,,[^CA,G,] A,,[CA,G,] | 
[V:1] G/F/A/d/ f/e/d/A/ | 
[V:2] D,[DA,F,] A,,[DA,F,] | 
[V:1] ^A/B/d/g/- g/f/=A/B/ |[1 
[V:2] D,[FB,G,] G,,[FB,G,] | 
[V:1] c/G/A/B/ c/d/e/g/ :|][2 
[V:2] C,[ECG,] [EE,][^C^C,] :|]  
[V:1] c/E/G/e/ c[gc] ]|: 
[V:2] C,[ECG,] [ECG,][EC_B,] ]|:  
[V:1] z2fc' & z [fc]-c2 | 
[V:2] z2[F2C2] & z [FCA,]- A,_A, | 
[V:1] e2c' z & c2-c z | 
[V:2] [E2C2G,2]-[ECG,] z | 
[V:1] z [c'-fc-] [c'c][d'd] | 
[V:2] z2[F2C2] & z [FCA,]- .A,_A, | 
[V:1] [e'2g2e2][geG] z | 
[V:2] [E2C2G,2]-[ECG,] z | 
[V:1] z2fc' & z [fc]-c2 | 
[V:2] z2[F2C2] & z [FCA,]- A,_A, | 
[V:1] e2c' z & c2-c z |[1 
[V:2] [E2C2G,2]-[ECG,] z | 
[V:1] [c^F^D] z[c2=F2=D2]- | 
[V:2] [A,A,,] z[_A,2_A,,2]- | 
[V:1] [cFD][BFD][cEC] z :|][2 
[V:2] [A,A,,][G,G,,][G,C,] z :|]  
[V:1] [c^F^D] z[c2=F2=D2]- | 
[V:2] [A,A,,] z[_A,2_A,,2]- | 
[V:1] [cFD][BFD] [cEC]G/E/ ]|: 
[V:2] [A,A,,][G,G,,] [G,C,]E,/G,/ ]|:  
[V:1] ^D/^F/A A/c/^d | 
[V:2] ^F,/A,/C C/^D/^F | 
[V:1] ^d/^f/a gc/=d/ | 
[V:2] ^F[^dcF] [ecG]C/=D/ | 
[V:1] e_e- e_A | 
[V:2] E_E- E_A, | 
[V:1] [_A2C2-][GC]G/=E/ | 
[V:2] F,2=E,E,/G,/ | 
[V:1] ^D/^F/A A/c/^d | 
[V:2] ^F,/A,/C C/^D/^F | 
[V:1] d/^f/a g(3E/=F/^F/ | 
[V:2] ^F[^dc=F] [ecG](3E,/=F,/^F,/ | 
[V:1] G zz2 |[1 
[V:2] G, zz2 | 
[V:1] z [BGF][cGE]G/E/ :|][2 
[V:2] z [G,G,,][CC,]E,/G,/ :|]  
[V:1] z [BGF][cGE] z ]|: 
[V:2] z [G,G,,][CC,] z ]|:  
[V:1] z2fc' & z [fc]-c2 | 
[V:2] z2[F2C2] & z [FCA,]- A,_A, | 
[V:1] e2c' z & c2-c z | 
[V:2] [E2C2G,2]-[ECG,] z | 
[V:1] z [c'-fc-] [c'c][d'd] | 
[V:2] z2[F2C2] & z [FCA,]- A,_A, | 
[V:1] [e'2g2e2][geG] z | 
[V:2] [E2C2G,2]-[ECG,] z | 
[V:1] z2fc' & z [fc]-c2 | 
[V:2] z2[F2C2] & z [FCA,]- A,_A, | 
[V:1] e2c' z & c2-c z | 
[V:2] [E2C2G,2]-[ECG,] z | 
[V:1] [c^F^D] z[c2=F2=D2]- | 
[V:2] [A,A,,] z[_A,2_A,,2]- | 
[V:1] [cFD][BFD][cEC] z :|]|:  
[V:2] [A,A,,][G,G,,][G,C,] z :|]|:  
[V:1] [ecG][ed^G]- [edG][ed=G] | 
[V:2] [CC,][B,B,,]- [B,B,,][_B,_B,,] | 
[V:1] [e^cG][d=c^F]- [dcF][dcF] | 
[V:2] [A,A,,][A,A,,]- [A,A,,][_A,_A,,] | 
[V:1] [dBF]G/A/ G z | 
[V:2] [G,G,,]G,/A,/ G, z | 
[V:1] z [e^AG][fBG] z | 
[V:2] z [^C^C,][DD,][G,G,,] | 
[V:1] [ecG][ed^G]- [edG][ed=G] | 
[V:2] [CC,][B,B,,]- [B,B,,][_B,_B,,] | 
[V:1] [e^cG][d=c^F]- [dcF][dc=F] | 
[V:2] [A,A,,][A,A,,]- [A,A,,][_A,_A,,] | 
[V:1] [dBF]G/A/ G z | 
[V:2] [G,G,,]G,/A,/ G, z | 
[V:1] z [BGF][cGE] z ]|:  
[V:2] z [G,G,,][CC,] z ]|:  
[V:1] z/ A/c/a/ ^f/^d/c/A/ | 
[V:2] [^D4C4-A,4^F,4] | 
[V:1] z/ G/c/e/ g z | 
[V:2] [E2C2G,2]-[ECG,] z | 
[V:1] z/ A/c/a/ ^f/^d/c/A/ | 
[V:2] [^D4C4-A,4^F,4] | 
[V:1] z/ G/c/e/ g z | 
[V:2] [E2C2G,2]-[ECG,] z | 
[V:1] z/ A/B/c/ d/A/c/^d/ | 
[V:2] [D2C2A,2F,2]-[DCA,F,][^DCA,^F,] | 
[V:1] .e.[d^cA].[ecG].[dc^F] | 
[V:2] .[ECG,].[D^C^F,].[ECG,].[DC_A,] | 
[V:1] [ecG] zz2 |[1 
[V:2] [ECG,] zz2 | 
[V:1] z [BGF][cGE] z :|][2 
[V:2] z [G,G,,][CC,] z :|]  
[V:1] z !accent![gfB]!accent![c'ec] z |]  
[V:2] z [G,G,,][C,C,,] z |]  


